X:246
T:Nail That Catfish to the Tree
Z:Jack Campin, http://www.campin.me.uk/
F:Jack Campin's Nine-Note Tunebook
% last edit 03-02-2013
C:Steve Rosen 
M:C|
L:1/8
Q:1/2=108
K:G % original key
   DE|GGBG AGBG|cBA2 B4   |ABAG FGAB|AG`FD (3EFE
   DE|GGBG AGBG|cBA2 B4   |ABAG FDEF|G2`G4    :|
   D2|E4   A4  |c3 E c2A2-|ABAG FGAB|AG`FD (3EFE
[1 D2|E4   A4  |c6     A2-|ABAG FDEF|GG-G4    :|
[2 D2|E4   A4  |c6     d2-|dDcD BDA2|GG-G4    |]


% == Canadian songs and dance tunes =========================================

